X: 31276
T: Paddy Hearny's
R: polka
M: 2/4
K: Dmajor
FA de|fA A2|Bc/B/A/ GB|dA A/B/A/G/|
FA de|fA A2|Bc/B/A/ GE|D2 D:|
A>B AG|FA dc|B>c BA|GF E2|
A>B AG|FA dc|Bc/B/A/ GE|D2- D:|

